src/resources/icons/logo.svg

<?xml version="1.0" encoding="UTF-8" standalone="no"?>
<!-- Created with Inkscape (http://www.inkscape.org/) -->

<svg
   width="422.72513mm"
   height="387.73724mm"
   viewBox="0 0 422.72513 387.73724"
   version="1.1"
   id="svg5"
   inkscape:version="1.1 (c68e22c387, 2021-05-23)"
   sodipodi:docname="logo.svg"
   xmlns:inkscape="http://www.inkscape.org/namespaces/inkscape"
   xmlns:sodipodi="http://sodipodi.sourceforge.net/DTD/sodipodi-0.dtd"
   xmlns="http://www.w3.org/2000/svg"
   xmlns:svg="http://www.w3.org/2000/svg">
  <sodipodi:namedview
     id="namedview7"
     pagecolor="#ffffff"
     bordercolor="#666666"
     borderopacity="1.0"
     inkscape:pageshadow="2"
     inkscape:pageopacity="0.0"
     inkscape:pagecheckerboard="0"
     inkscape:document-units="mm"
     showgrid="false"
     inkscape:zoom="0.17416176"
     inkscape:cx="729.20715"
     inkscape:cy="1211.5174"
     inkscape:window-width="1920"
     inkscape:window-height="986"
     inkscape:window-x="-11"
     inkscape:window-y="-11"
     inkscape:window-maximized="1"
     inkscape:current-layer="layer1" />
  <defs
     id="defs2" />
  <g
     inkscape:label="Warstwa 1"
     inkscape:groupmode="layer"
     id="layer1"
     transform="translate(146.41756,100.43896)">
    <g
       style="clip-rule:evenodd;fill:#ffffff;fill-rule:evenodd;stroke-linejoin:round;stroke-miterlimit:2"
       id="g1003"
       transform="matrix(0.26458333,0,0,0.26458333,-146.41717,-100.43858)">
      <g
         transform="translate(-887.448,-478.531)"
         id="g970"
         style="fill:#ffffff">
        <g
           transform="scale(4.16667)"
           id="g926"
           style="fill:#ffffff">
          <g
             transform="translate(334.63,455.218)"
             id="g924"
             style="fill:#ffffff">
            <path
               d="m 0,-14.384 -5.255,0.498 -1.107,-6.03 h -11.119 v 11.562 h 15.6 v 5.2 h -15.6 v 8.685 h 6.03 v 5.256 h -16.32 V 5.531 h 4.149 v -25.447 h -4.149 v -5.255 h 26.665 z"
               style="fill:#ffffff;fill-rule:nonzero"
               id="path922" />
          </g>
        </g>
        <g
           transform="scale(4.16667)"
           id="g932"
           style="fill:#ffffff">
          <g
             transform="translate(365.167,430.047)"
             id="g930"
             style="fill:#ffffff">
            <path
               d="m 0,35.958 h -14.383 v -5.256 h 4.149 V 5.255 h -4.149 V 0 H 0 V 5.255 H -4.094 V 30.702 H 0 Z"
               style="fill:#ffffff;fill-rule:nonzero"
               id="path928" />
          </g>
        </g>
        <g
           transform="scale(4.16667)"
           id="g938"
           style="fill:#ffffff">
          <g
             transform="translate(411.003,430.047)"
             id="g936"
             style="fill:#ffffff">
            <path
               d="m 0,35.958 h -26.609 v -5.256 h 4.149 V 5.255 h -4.149 V 0 h 15.655 v 5.255 h -5.366 v 25.447 h 11.064 l 1.107,-7.469 5.255,0.443 z"
               style="fill:#ffffff;fill-rule:nonzero"
               id="path934" />
          </g>
        </g>
        <g
           transform="scale(4.16667)"
           id="g944"
           style="fill:#ffffff">
          <g
             transform="translate(472.005,460.75)"
             id="g942"
             style="fill:#ffffff">
            <path
               d="m 0,-25.448 h -4.535 v 25.447 h 4.093 v 5.256 h -13.775 v -5.256 h 3.541 v -17.204 h -0.222 L -21.353,2.71 h -2.766 l -11.009,-20.413 h -0.222 v 17.702 h 3.763 v 5.256 h -13.609 v -5.256 h 4.092 v -25.447 h -4.535 v -5.255 h 9.737 l 13.276,24.507 h 0.222 L -9.791,-30.703 H 0 Z"
               style="fill:#ffffff;fill-rule:nonzero"
               id="path940" />
          </g>
        </g>
        <g
           transform="scale(4.16667)"
           id="g950"
           style="fill:#ffffff">
          <g
             transform="translate(513.923,440.613)"
             id="g948"
             style="fill:#ffffff">
            <path
               d="m 0,14.826 c 0,3.578 -1.244,6.326 -3.733,8.243 -2.49,1.917 -5.782,2.876 -9.875,2.876 -2.434,0 -4.786,-0.295 -7.053,-0.885 -2.269,-0.589 -4.068,-1.438 -5.395,-2.545 l 0.996,-8.242 4.924,0.497 -0.111,4.427 c 1.217,0.627 2.333,1.023 3.347,1.189 1.014,0.166 1.964,0.249 2.849,0.249 2.139,0 3.918,-0.341 5.338,-1.024 1.419,-0.682 2.131,-2.056 2.131,-4.122 0,-2.248 -0.813,-3.751 -2.435,-4.508 -1.624,-0.755 -3.485,-1.337 -5.587,-1.743 -1.697,-0.331 -3.412,-0.773 -5.145,-1.327 -1.734,-0.554 -3.172,-1.475 -4.314,-2.766 -1.144,-1.291 -1.715,-3.189 -1.715,-5.699 0,-3.761 1.28,-6.462 3.843,-8.103 2.564,-1.641 5.431,-2.462 8.603,-2.462 2.213,0 4.36,0.332 6.445,0.996 2.083,0.663 3.715,1.53 4.897,2.599 L -1.659,0.055 -6.582,0.498 -7.08,-4.15 c -1.033,-0.588 -2.066,-0.995 -3.098,-1.215 -1.033,-0.222 -2.029,-0.332 -2.987,-0.332 -1.734,0 -3.173,0.35 -4.315,1.05 -1.144,0.702 -1.716,1.826 -1.716,3.374 0,1.809 0.71,3.036 2.13,3.68 1.42,0.645 3.015,1.171 4.786,1.576 1.511,0.332 3.225,0.775 5.144,1.328 C -5.219,5.864 -3.55,6.85 -2.129,8.27 -0.71,9.691 0,11.876 0,14.826"
               style="fill:#ffffff;fill-rule:nonzero"
               id="path946" />
          </g>
        </g>
        <g
           transform="scale(4.16667)"
           id="g956"
           style="fill:#ffffff">
          <g
             transform="matrix(0,-1,-1,0,284.371,446.342)"
             id="g954"
             style="fill:#ffffff">
            <path
               d="m -3.767,-3.767 c -2.08,0 -3.767,1.687 -3.767,3.768 0,2.079 1.687,3.766 3.767,3.766 2.08,0 3.768,-1.687 3.768,-3.766 0,-2.081 -1.688,-3.768 -3.768,-3.768"
               style="fill:#ffffff;fill-rule:nonzero"
               id="path952" />
          </g>
        </g>
        <g
           transform="scale(4.16667)"
           id="g962"
           style="fill:#ffffff">
          <g
             transform="matrix(0,-1,-1,0,547.316,446.342)"
             id="g960"
             style="fill:#ffffff">
            <path
               d="m -3.767,-3.767 c -2.08,0 -3.767,1.687 -3.767,3.768 0,2.079 1.687,3.766 3.767,3.766 2.08,0 3.768,-1.687 3.768,-3.766 0,-2.081 -1.688,-3.768 -3.768,-3.768"
               style="fill:#ffffff;fill-rule:nonzero"
               id="path958" />
          </g>
        </g>
        <g
           transform="scale(4.16667)"
           id="g968"
           style="fill:#ffffff">
          <g
             transform="translate(280.29,250.231)"
             id="g966"
             style="fill:#ffffff">
            <path
               d="m 0,21.54 -0.039,127.542 -55.597,-0.025 z m 23.73,-36.77 c 6.926,0 12.117,1.656 15.428,4.924 3.125,3.091 4.984,48.939 4.984,56.775 0,6.156 -1.782,10.956 -5.297,14.263 -3.525,3.316 -8.438,4.998 -14.603,4.998 H 8.184 V 2.783 l 7.859,-18.013 z m 36.284,-100.781 43.039,91.76 H 65.812 V 149.113 L 8.184,149.086 V 73.054 h 16.698 c 8.275,0 15.056,-2.323 20.157,-6.905 5.115,-4.595 7.709,-11.302 7.709,-19.936 0,-6.185 -2.066,-55.845 -6.445,-61.112 -4.3,-5.166 -11.765,-7.786 -22.189,-7.786 H 19.295 Z M 268.685,65.685 h -16.023 v 7.454 h 10.164 l -22.52,39.092 H 226.563 V -0.308 h 0.658 c 13.776,17.334 25.154,31.679 28.449,35.91 z m -21.671,49.414 24.806,-42.166 33.002,76.288 -33.003,-0.014 z m -20.451,4.457 h 14.031 l 21.624,29.646 -35.655,-0.016 z M 168.167,-74.523 c 10.537,13.23 31.284,39.287 50.045,62.882 v 160.823 l -23.458,-0.011 z M 144.801,72.928 h 32.755 l 8.478,76.239 -49.966,-0.023 z M 145.3,66.115 161.923,-72.67 177.306,66.115 Z m -33.007,68.319 -7.302,-0.729 -2.252,15.424 -28.704,-0.012 V 73.2 h 33.083 V 65.746 H 74.035 v -82.542 h 30.797 l 2.567,17.592 7.432,-0.874 -2.658,-24.173 h -1.311 l 43.221,-50.685 -26.361,224.077 -16.954,-0.008 z M 262.2,31.214 C 257.918,25.702 161.642,-94.979 161.642,-94.979 L 106.466,-31.08 59.96,-135.384 -67.303,156.924 h 383.448 z"
               style="fill:#ffffff;fill-rule:nonzero"
               id="path964" />
          </g>
        </g>
      </g>
    </g>
  </g>
</svg>

<?xml version="1.0" encoding="UTF-8" standalone="no"?>
<!DOCTYPE svg PUBLIC "-//W3C//DTD SVG 1.1//EN" "http://www.w3.org/Graphics/SVG/1.1/DTD/svg11.dtd">
<svg width="100%" height="100%" viewBox="0 0 1598 1466" version="1.1" xmlns="http://www.w3.org/2000/svg" xmlns:xlink="http://www.w3.org/1999/xlink" xml:space="preserve" xmlns:serif="http://www.serif.com/" style="fill-rule:evenodd;clip-rule:evenodd;stroke-linejoin:round;stroke-miterlimit:2;">
    <g transform="matrix(1,0,0,1,-887.448,-478.531)">
        <g transform="matrix(4.16667,0,0,4.16667,0,0)">
            <g transform="matrix(1,0,0,1,334.63,455.218)">
                <path d="M0,-14.384L-5.255,-13.886L-6.362,-19.916L-17.481,-19.916L-17.481,-8.354L-1.881,-8.354L-1.881,-3.154L-17.481,-3.154L-17.481,5.531L-11.451,5.531L-11.451,10.787L-27.771,10.787L-27.771,5.531L-23.622,5.531L-23.622,-19.916L-27.771,-19.916L-27.771,-25.171L-1.106,-25.171L0,-14.384Z" style="fill:rgb(29,29,27);fill-rule:nonzero;"/>
            </g>
        </g>
        <g transform="matrix(4.16667,0,0,4.16667,0,0)">
            <g transform="matrix(1,0,0,1,365.167,430.047)">
                <path d="M0,35.958L-14.383,35.958L-14.383,30.702L-10.234,30.702L-10.234,5.255L-14.383,5.255L-14.383,0L0,0L0,5.255L-4.094,5.255L-4.094,30.702L0,30.702L0,35.958Z" style="fill:rgb(29,29,27);fill-rule:nonzero;"/>
            </g>
        </g>
        <g transform="matrix(4.16667,0,0,4.16667,0,0)">
            <g transform="matrix(1,0,0,1,411.003,430.047)">
                <path d="M0,35.958L-26.609,35.958L-26.609,30.702L-22.46,30.702L-22.46,5.255L-26.609,5.255L-26.609,0L-10.954,0L-10.954,5.255L-16.32,5.255L-16.32,30.702L-5.256,30.702L-4.149,23.233L1.106,23.676L0,35.958Z" style="fill:rgb(29,29,27);fill-rule:nonzero;"/>
            </g>
        </g>
        <g transform="matrix(4.16667,0,0,4.16667,0,0)">
            <g transform="matrix(1,0,0,1,472.005,460.75)">
                <path d="M0,-25.448L-4.535,-25.448L-4.535,-0.001L-0.442,-0.001L-0.442,5.255L-14.217,5.255L-14.217,-0.001L-10.676,-0.001L-10.676,-17.205L-10.898,-17.205L-21.353,2.71L-24.119,2.71L-35.128,-17.703L-35.35,-17.703L-35.35,-0.001L-31.587,-0.001L-31.587,5.255L-45.196,5.255L-45.196,-0.001L-41.104,-0.001L-41.104,-25.448L-45.639,-25.448L-45.639,-30.703L-35.902,-30.703L-22.626,-6.196L-22.404,-6.196L-9.791,-30.703L0,-30.703L0,-25.448Z" style="fill:rgb(29,29,27);fill-rule:nonzero;"/>
            </g>
        </g>
        <g transform="matrix(4.16667,0,0,4.16667,0,0)">
            <g transform="matrix(1,0,0,1,513.923,440.613)">
                <path d="M0,14.826C0,18.404 -1.244,21.152 -3.733,23.069C-6.223,24.986 -9.515,25.945 -13.608,25.945C-16.042,25.945 -18.394,25.65 -20.661,25.06C-22.93,24.471 -24.729,23.622 -26.056,22.515L-25.06,14.273L-20.136,14.77L-20.247,19.197C-19.03,19.824 -17.914,20.22 -16.9,20.386C-15.886,20.552 -14.936,20.635 -14.051,20.635C-11.912,20.635 -10.133,20.294 -8.713,19.611C-7.294,18.929 -6.582,17.555 -6.582,15.489C-6.582,13.241 -7.395,11.738 -9.017,10.981C-10.641,10.226 -12.502,9.644 -14.604,9.238C-16.301,8.907 -18.016,8.465 -19.749,7.911C-21.483,7.357 -22.921,6.436 -24.063,5.145C-25.207,3.854 -25.778,1.956 -25.778,-0.554C-25.778,-4.315 -24.498,-7.016 -21.935,-8.657C-19.371,-10.298 -16.504,-11.119 -13.332,-11.119C-11.119,-11.119 -8.972,-10.787 -6.887,-10.123C-4.804,-9.46 -3.172,-8.593 -1.99,-7.524L-1.659,0.055L-6.582,0.498L-7.08,-4.15C-8.113,-4.738 -9.146,-5.145 -10.178,-5.365C-11.211,-5.587 -12.207,-5.697 -13.165,-5.697C-14.899,-5.697 -16.338,-5.347 -17.48,-4.647C-18.624,-3.945 -19.196,-2.821 -19.196,-1.273C-19.196,0.536 -18.486,1.763 -17.066,2.407C-15.646,3.052 -14.051,3.578 -12.28,3.983C-10.769,4.315 -9.055,4.758 -7.136,5.311C-5.219,5.864 -3.55,6.85 -2.129,8.27C-0.71,9.691 0,11.876 0,14.826" style="fill:rgb(29,29,27);fill-rule:nonzero;"/>
            </g>
        </g>
        <g transform="matrix(4.16667,0,0,4.16667,0,0)">
            <g transform="matrix(0,-1,-1,0,284.371,446.342)">
                <path d="M-3.767,-3.767C-5.847,-3.767 -7.534,-2.08 -7.534,0.001C-7.534,2.08 -5.847,3.767 -3.767,3.767C-1.687,3.767 0.001,2.08 0.001,0.001C0.001,-2.08 -1.687,-3.767 -3.767,-3.767" style="fill:rgb(29,29,27);fill-rule:nonzero;"/>
            </g>
        </g>
        <g transform="matrix(4.16667,0,0,4.16667,0,0)">
            <g transform="matrix(0,-1,-1,0,547.316,446.342)">
                <path d="M-3.767,-3.767C-5.847,-3.767 -7.534,-2.08 -7.534,0.001C-7.534,2.08 -5.847,3.767 -3.767,3.767C-1.687,3.767 0.001,2.08 0.001,0.001C0.001,-2.08 -1.687,-3.767 -3.767,-3.767" style="fill:rgb(29,29,27);fill-rule:nonzero;"/>
            </g>
        </g>
        <g transform="matrix(4.16667,0,0,4.16667,0,0)">
            <g transform="matrix(1,0,0,1,280.29,250.231)">
                <path d="M0,21.54L-0.039,149.082L-55.636,149.057L0,21.54ZM23.73,-15.23C30.656,-15.23 35.847,-13.574 39.158,-10.306C42.283,-7.215 44.142,38.633 44.142,46.469C44.142,52.625 42.36,57.425 38.845,60.732C35.32,64.048 30.407,65.73 24.242,65.73L8.184,65.73L8.184,2.783L16.043,-15.23L23.73,-15.23ZM60.014,-116.011L103.053,-24.251L65.812,-24.251L65.812,149.113L8.184,149.086L8.184,73.054L24.882,73.054C33.157,73.054 39.938,70.731 45.039,66.149C50.154,61.554 52.748,54.847 52.748,46.213C52.748,40.028 50.682,-9.632 46.303,-14.899C42.003,-20.065 34.538,-22.685 24.114,-22.685L19.295,-22.685L60.014,-116.011ZM268.685,65.685L252.662,65.685L252.662,73.139L262.826,73.139L240.306,112.231L226.563,112.231L226.563,-0.308L227.221,-0.308C240.997,17.026 252.375,31.371 255.67,35.602L268.685,65.685ZM247.014,115.099L271.82,72.933L304.822,149.221L271.819,149.207L247.014,115.099ZM226.563,119.556L240.594,119.556L262.218,149.202L226.563,149.186L226.563,119.556ZM168.167,-74.523C178.704,-61.293 199.451,-35.236 218.212,-11.641L218.212,149.182L194.754,149.171L168.167,-74.523ZM144.801,72.928L177.556,72.928L186.034,149.167L136.068,149.144L144.801,72.928ZM145.3,66.115L161.923,-72.67L177.306,66.115L145.3,66.115ZM112.293,134.434L104.991,133.705L102.739,149.129L74.035,149.117L74.035,73.2L107.118,73.2L107.118,65.746L74.035,65.746L74.035,-16.796L104.832,-16.796L107.399,0.796L114.831,-0.078L112.173,-24.251L110.862,-24.251L154.083,-74.936L127.722,149.141L110.768,149.133L112.293,134.434ZM262.2,31.214C257.918,25.702 161.642,-94.979 161.642,-94.979L106.466,-31.08L59.96,-135.384L-67.303,156.924L316.145,156.924L262.2,31.214Z" style="fill:rgb(29,29,27);fill-rule:nonzero;"/>
            </g>
        </g>
    </g>
</svg>
